X:18706
T:Whistle O'er the Lave O't
G:song
M:4/4
L:1/8
K:F
% lydian/major hexatonic
F>C  D<F A>GA2|c>dA>f G>FD2|F>CD<F A>GA>f|F<FA>F G2F2||
cd/e/f>c d>cA2|c>dA>f G>FD2|f>ad>f c>dA>f|F<FA>F G2F2|]


